X: 36247
T: Seaforth Highlanders, The
R: strathspey
M: 4/4
K: Amajor
A/A/A a2 A/A/A e2|A/A/A a2 cAAA|A/A/A a2 A/A/A e2|Bgdg BGGB|
A/A/A a2 A/A/A e2|A/A/A a2 cAAc|d<df>d c<ce>c|Bgdg BGG||
A/A/A e2 A/A/A f2|A/A/A e2 cABc|A/A/A e2 A/A/A f2|Bgdg BGGB|
A/A/A e2 A/A/A e2|A/A/A e2 cAAc|d<fd>f cece|BgBg BGG||

